X:1
T:Title
%%score 1 { 2 | 3 }
L:1/8
Q:1/4=110
M:4/4
K:Ab
V:1 treble nm="Grand Piano, Soprano"
V:2 bass nm="Grand Piano, Bass"
V:3 bass 
V:1
 z4 z2 [CE]>[CE] | [CE]>[Ec] [Ec]>[Ec] [Ec]>[Ec] [Fd]>[Ec] | [DB]4 [DF]2 [B,G]>[CA] | %3
w: 1.~Oh,~ I~|praise~ the~ Lord~ who~ bought~ me,~ hal le|lu jah!~ I'm~ a~|
 [DB]>[DB] [DB]>[DB] [DB]>[Ed] [Ec]>[EB] | [Ec]6 [CE]>[CE] | %5
w: hap py~ pil grim~ bound~ for~ glo ry~|land;~ I~ am~|
 [CE]>[Ec] [Ec]>[Ec] [Ec]>[Ec] [Ed]>[Ec] | [FB]4 [DF]2 [DA]>[DA] | %7
w: sing ing,~ and~ I~ hope~ to~ sing~ for|ev er,~ When~ be|
 [EG]>[Ge] [Ge]>[Ge] [Ge]>[Ed] [DF]>[DG] | [CA]6 [EA]>[EA] | [FA]4 [Fd]2 [EA]>[EB] | %10
w: fore~ His~ throne~ e ter nal~ I~ shall~|stand.~ * *||
 [Ac]4 [Ac]2 [Ac]>[Ac] | [GB]4- [GB]>[GB] [Ac]>[A=d] | [Ge]6 E>[DE] | %13
w: |||
 [CE]>[Ec] [Ec]>[Ec] [Ec]>[Ec] [Ed]>[Ec] | [FB]4 [DF]2 [DA]>[DA] | %15
w: sing ing,~ and~ I~ hope~ to~ sing~ for|ev er,~ But~ be|
 [EG]>[Ge] [Ge]>[Ge] [Ge]>[Ed] [DF]>[DG] | [CA]6 z2 |] %17
w: fore~ His~ throne~ e ter nal~ I~ shall~|stand.~|
V:2
 z4 z2 A,>A, | A,>A, A,>A, A,>A, A,>A, | F,4 A,2 E,>E, | G,>G, G,>G, G,>B, A,>G, | A,6 A,>A, | %5
 A,>A, A,>A, A,>A, A,>A, | A,4 A,2 A,>A, | B,>B, B,>B, B,>B, G,>B, | A,6[K:treble] C>C | %9
 D>D D>D A,>A, C>D | E4 E2 E>E | E>E E>E E>[K:bass]B, B,>B, | B,6 A,>G, | A,>A, A,>A, A,>A, A,>A, | %14
 A,4 A,2 A,>A, | B,>B, B,>B, B,>B, G,>B, | A,6 z2 |] %17
V:3
 z4 z2 A,,>A,, | A,,>A,, A,,>A,, A,,>A,, A,,>A,, | D,4 D,2 z2 | E,>E, E,>E, E,>E, E,>E, | %4
 A,,6 A,,>A,, | A,,>A,, A,,>A,, A,,>A,, A,,>A,, | D,4 D,2 F,>F, | E,>E, E,>E, E,>E, E,>E, | %8
 A,,6 A,>A, | D,>D, D,>D, D,>D, A,>A, | A,4 A,2 A,>A, | B,>B, B,>B, B,,>B,, B,,>B,, | %12
 E,2 E,>E, E,D, C,>B,, | A,,>A,, A,,>A,, A,,>A,, A,,>A,, | D,4 D,2 F,>F, | %15
 E,>E, E,>E, E,>E, E,>E, | A,,6 z2 |] %17

